navigator-task/img/icons/location.svg

<svg width="14" height="16" viewBox="0 0 14 16" fill="none" xmlns="http://www.w3.org/2000/svg">
<path fill-rule="evenodd" clip-rule="evenodd" d="M0 6.75C0 2.98929 2.98929 0 6.75 0C10.5107 0 13.5 2.98929 13.4036 6.75C13.4036 8.58214 12.7286 10.3179 11.3786 11.5714C11.3786 11.6435 9.16781 13.6029 8.01231 14.627C7.62258 14.9724 7.35289 15.2114 7.32857 15.2357C7.03929 15.525 6.46071 15.525 6.075 15.2357C6.02678 15.1875 5.0382 14.2954 4.04972 13.4033C3.06142 12.5114 2.07321 11.6196 2.025 11.5714C0.675 10.3179 0 8.58214 0 6.75ZM4.82141 6.74986C4.82141 7.81058 5.68927 8.67843 6.74998 8.67843C7.8107 8.67843 8.67855 7.81058 8.67855 6.74986C8.67855 5.68915 7.8107 4.82129 6.74998 4.82129C5.68927 4.82129 4.82141 5.68915 4.82141 6.74986Z" fill="white"/>
</svg>

<svg width="14" height="16" fill="none" xmlns="http://www.w3.org/2000/svg"><path fill-rule="evenodd" clip-rule="evenodd" d="M0 6.75C0 2.99 2.99 0 6.75 0s6.75 2.99 6.654 6.75c0 1.832-.675 3.568-2.025 4.821 0 .072-2.211 2.032-3.367 3.056-.39.345-.66.584-.683.609-.29.289-.868.289-1.254 0-.048-.049-1.037-.94-2.025-1.833-.989-.892-1.977-1.783-2.025-1.832C.675 10.318 0 8.582 0 6.75zm4.821 0c0 1.06.868 1.928 1.929 1.928 1.06 0 1.929-.867 1.929-1.928 0-1.06-.868-1.929-1.929-1.929-1.06 0-1.929.868-1.929 1.929z" fill="#fff"/></svg>
